dhis-2/dhis-support/dhis-support-system/src/main/resources/SVGs/pills_4_outline.svg

<svg width="48" height="48" viewBox="0 0 48 48" fill="none" xmlns="http://www.w3.org/2000/svg">
<path fill-rule="evenodd" clip-rule="evenodd" d="M13.7678 4.00377C12.1058 3.95267 10.4108 4.33586 8.85725 5.19905C4.7284 7.50402 2.96123 12.4488 4.57021 16.7889C4.7322 17.2659 4.9294 17.4389 5.1444 17.4609C5.3594 17.4829 5.59209 17.3529 5.82609 17.2229L20.7109 8.93951C21.1499 8.69551 21.4859 8.34881 20.9939 7.67382C19.2159 5.38145 16.538 4.08917 13.768 4.00397L13.7678 4.00377ZM34.3825 4.03697C33.8185 4.04137 33.2495 4.09637 32.6816 4.20497C32.1836 4.28576 31.9806 4.45166 31.9236 4.66006C31.8666 4.86836 31.9546 5.11865 32.0446 5.37095L37.7515 21.4217C37.8775 21.7767 38.0685 22.0847 38.4725 22.0587C38.6065 22.0497 38.7655 22.0037 38.9525 21.9097C43.0404 19.7108 44.9864 14.8148 43.4014 10.3499C42.0104 6.45274 38.3275 4.00607 34.3825 4.03707V4.03697ZM13.6638 4.52716C16.1788 4.60216 18.6627 5.46275 20.2787 7.52522C20.7187 8.12362 20.7567 8.35881 20.3787 8.56821L5.73089 16.7247C5.53949 16.8297 5.4297 16.9137 5.3319 16.8707C5.2342 16.8277 5.1489 16.6577 5.0058 16.2497C3.52072 12.3238 5.4415 7.69212 9.20495 5.60585C10.6158 4.82726 12.1548 4.48206 13.6638 4.52716ZM34.6855 4.57606C38.2765 4.59486 41.6874 7.07503 42.9424 10.6248C43.4764 12.1448 43.5634 13.7197 43.2694 15.2007C42.7784 17.6687 41.5174 19.9767 39.2165 21.2297C38.8845 21.3977 38.6595 21.4797 38.4995 21.4707C38.3395 21.4607 38.2435 21.3597 38.1715 21.1557L32.5526 5.35885C32.4796 5.15355 32.4156 5.03055 32.4746 4.94126C32.5326 4.85196 32.7146 4.79626 33.1405 4.72256C33.6545 4.62066 34.1715 4.57336 34.6855 4.57606ZM30.3976 5.03305C30.2626 5.04285 30.1066 5.08765 29.9236 5.17955C27.3756 6.55584 25.6626 8.98 25.1226 11.6948C24.7987 13.3248 24.8967 15.0587 25.4896 16.7317C26.8856 20.6407 30.5856 23.0886 34.5445 23.0426C35.1095 23.0356 35.6815 22.9786 36.2515 22.8666C37.1945 22.7056 37.0245 22.2166 36.8625 21.7636L31.1306 5.63285C31.0106 5.29615 30.8036 5.00365 30.3976 5.03305ZM30.3866 5.68535C30.5466 5.69485 30.6406 5.79605 30.7126 5.99984L36.3315 21.7966C36.4765 22.2076 36.5945 22.2856 35.7435 22.4336C35.2285 22.5346 34.7115 22.5826 34.1985 22.5796C30.6076 22.5606 27.1986 20.0787 25.9426 16.5287C25.4086 15.0087 25.3226 13.4357 25.6166 11.9548C26.1066 9.4872 27.3676 7.17873 29.6696 5.92564C30.0006 5.75825 30.2266 5.67595 30.3866 5.68535ZM21.8297 9.5428C21.6247 9.5209 21.4047 9.6406 21.1947 9.7576L6.23589 18.0817C5.82019 18.3137 5.50419 18.6847 5.98819 19.3477C7.76717 21.6326 10.4418 22.9206 13.2088 23.0036C14.8698 23.0536 16.5628 22.6706 18.1147 21.8086C22.2557 19.4967 24.0187 14.5297 22.3847 10.1798C22.2267 9.728 22.0357 9.5646 21.8297 9.5428ZM21.7147 10.1308C21.8117 10.1738 21.8977 10.3438 22.0407 10.7518C23.5257 14.6777 21.6027 19.3077 17.8397 21.3947C16.4288 22.1726 14.8918 22.5176 13.3828 22.4726C10.8678 22.3976 8.38426 21.5366 6.76748 19.4747C6.32758 18.8757 6.28979 18.6427 6.66788 18.4337L21.3157 10.2768C21.5067 10.1718 21.6167 10.0878 21.7147 10.1308ZM13.3888 24.9666C12.8228 24.9726 12.2518 25.0306 11.6818 25.1426C10.7388 25.3036 10.9088 25.7926 11.0698 26.2456L16.8028 42.3764C16.9628 42.8254 17.2757 43.1974 18.0097 42.8294C20.5577 41.4534 22.2707 39.0294 22.8107 36.3135C23.1347 34.6845 23.0367 32.9505 22.4427 31.2765C21.0477 27.3686 17.3467 24.9206 13.3888 24.9666ZM34.7245 25.0056C33.0635 24.9556 31.3696 25.3386 29.8176 26.2006C25.6766 28.5126 23.9147 33.4795 25.5486 37.8294C25.8636 38.7324 26.3176 38.4854 26.7376 38.2514L41.6964 29.9275C42.1124 29.6955 42.4284 29.3246 41.9444 28.6616C40.1655 26.3766 37.4915 25.0886 34.7245 25.0056ZM13.7338 25.4296C17.3257 25.4486 20.7337 27.9306 21.9897 31.4795C22.5237 32.9995 22.6107 34.5725 22.3157 36.0545C21.8257 38.5214 20.5647 40.8304 18.2637 42.0834C17.6007 42.4184 17.3647 42.4164 17.2207 42.0094L11.6018 26.2126C11.4558 25.8006 11.3378 25.7236 12.1888 25.5756C12.7038 25.4736 13.2208 25.4266 13.7338 25.4296ZM34.5505 25.5366C37.0645 25.6116 39.5485 26.4726 41.1654 28.5346C41.6054 29.1336 41.6434 29.3666 41.2654 29.5755L26.6166 37.7314C26.2346 37.9434 26.1786 38.0724 25.8926 37.2574C24.4077 33.3305 26.3296 28.7016 30.0936 26.6146C31.5036 25.8366 33.0405 25.4916 34.5505 25.5366ZM9.46085 25.9506C9.32635 25.9596 9.16715 26.0056 8.98045 26.0996C4.8923 28.2976 2.94653 33.1935 4.53121 37.6594C6.12109 42.1134 10.7059 44.6724 15.2521 43.8044C15.7491 43.7234 15.9521 43.5574 16.0101 43.3494C16.0671 43.1404 15.9781 42.8904 15.8891 42.6384L10.1821 26.5876C10.0561 26.2326 9.86464 25.9246 9.46105 25.9506H9.46085ZM9.43355 26.5386C9.59394 26.5486 9.68964 26.6496 9.76164 26.8536L15.3809 42.6494C15.4529 42.8554 15.5179 42.9784 15.4589 43.0674C15.3999 43.1574 15.2189 43.2124 14.7929 43.2864C10.6749 44.1014 6.42538 41.4414 4.9902 37.3844C4.45641 35.8645 4.36971 34.2895 4.66411 32.8085C5.1541 30.3405 6.41518 28.0316 8.71675 26.7786C9.04825 26.6116 9.27315 26.5296 9.43355 26.5386ZM42.7881 30.5485C42.5731 30.5265 42.3401 30.6565 42.1061 30.7865L27.2223 39.0694C26.7833 39.3134 26.4463 39.6604 26.9383 40.3354C29.7833 44.0034 34.9332 45.1124 39.0752 42.8104C43.2041 40.5054 44.9711 35.5605 43.3621 31.2205C43.2001 30.7435 43.0031 30.5705 42.7881 30.5485ZM42.6011 31.1385C42.6981 31.1815 42.7841 31.3515 42.9271 31.7595C44.4121 35.6855 42.4911 40.3164 38.7282 42.4034C37.3172 43.1814 35.7782 43.5274 34.2692 43.4814C31.7543 43.4074 29.2703 42.5464 27.6533 40.4834C27.2133 39.8854 27.1763 39.6504 27.5543 39.4404L42.2021 31.2845C42.3931 31.1795 42.5031 31.0945 42.6011 31.1385Z" fill="#333333"/>
</svg>

<?xml version="1.0" encoding="UTF-8" standalone="no"?>
<!-- Created with Inkscape (http://www.inkscape.org/) -->
<svg id="svg8" xmlns:rdf="http://www.w3.org/1999/02/22-rdf-syntax-ns#" xmlns="http://www.w3.org/2000/svg" height="48" viewBox="0 0 12.7 12.7" width="48" version="1.1" xmlns:cc="http://creativecommons.org/ns#" xmlns:dc="http://purl.org/dc/elements/1.1/">
 <title id="title4753">UIO-icon</title>
 <metadata id="metadata5">
  <rdf:RDF>
   <cc:Work rdf:about="">
    <dc:format>image/svg+xml</dc:format>
    <dc:type rdf:resource="http://purl.org/dc/dcmitype/StillImage"/>
    <dc:title>UIO-icon</dc:title>
    <dc:creator>
     <cc:Agent>
      <dc:title>Joaquín Urbano</dc:title>
     </cc:Agent>
    </dc:creator>
    <dc:rights>
     <cc:Agent>
      <dc:title>GPL</dc:title>
     </cc:Agent>
    </dc:rights>
   </cc:Work>
  </rdf:RDF>
 </metadata>
 <path id="path831" d="m13.768 4.0039c-1.662-0.0511-3.357 0.3321-4.9106 1.1953-4.1289 2.305-5.8961 7.2498-4.2871 11.59 0.162 0.477 0.3592 0.65 0.5742 0.672s0.4477-0.108 0.6817-0.238l14.885-8.2835c0.439-0.244 0.775-0.5907 0.283-1.2657-1.778-2.2924-4.456-3.5847-7.226-3.6699zm20.615 0.0332c-0.564 0.0044-1.133 0.0594-1.701 0.168-0.498 0.0808-0.701 0.2467-0.758 0.4551-0.057 0.2083 0.031 0.4586 0.121 0.7109l5.707 16.051c0.126 0.355 0.317 0.663 0.721 0.637 0.134-0.009 0.293-0.055 0.48-0.149 4.088-2.199 6.034-7.095 4.449-11.56-1.391-3.8972-5.074-6.3439-9.019-6.3129zm-20.719 0.4902c2.515 0.075 4.999 0.9356 6.615 2.9981 0.44 0.5984 0.478 0.8336 0.1 1.043l-14.648 8.1566c-0.1914 0.105-0.3012 0.189-0.399 0.146-0.0977-0.043-0.183-0.213-0.3261-0.621-1.4851-3.926 0.4357-8.5577 4.1992-10.644 1.4109-0.7786 2.9499-1.1238 4.4589-1.0787zm21.022 0.0489c3.591 0.0188 7.002 2.499 8.257 6.0488 0.534 1.52 0.621 3.095 0.327 4.576-0.491 2.468-1.752 4.776-4.053 6.029-0.332 0.168-0.557 0.25-0.717 0.241-0.16-0.01-0.256-0.111-0.328-0.315l-5.619-15.797c-0.073-0.2053-0.137-0.3283-0.078-0.4176 0.058-0.0893 0.24-0.145 0.666-0.2187 0.514-0.1019 1.031-0.1492 1.545-0.1465zm-4.288 0.457c-0.135 0.0098-0.291 0.0546-0.474 0.1465-2.548 1.3763-4.261 3.8005-4.801 6.5153-0.324 1.63-0.226 3.364 0.367 5.037 1.396 3.909 5.096 6.357 9.055 6.311 0.565-0.007 1.137-0.064 1.707-0.176 0.943-0.161 0.773-0.65 0.611-1.103l-5.732-16.131c-0.12-0.3367-0.327-0.6292-0.733-0.5998zm-0.011 0.6523c0.16 0.0095 0.254 0.1107 0.326 0.3145l5.619 15.797c0.145 0.411 0.263 0.489-0.588 0.637-0.515 0.101-1.032 0.149-1.545 0.146-3.591-0.019-7-2.501-8.256-6.051-0.534-1.52-0.62-3.093-0.326-4.574 0.49-2.4676 1.751-4.7761 4.053-6.0292 0.331-0.1674 0.557-0.2497 0.717-0.2403zm-8.557 3.8575c-0.205-0.0219-0.425 0.0978-0.635 0.2148l-14.959 8.3242c-0.4157 0.232-0.7317 0.603-0.2477 1.266 1.779 2.285 4.4537 3.573 7.2207 3.656 1.661 0.05 3.354-0.333 4.906-1.195 4.141-2.312 5.904-7.279 4.27-11.629-0.158-0.4518-0.349-0.6152-0.555-0.637zm-0.115 0.588c0.097 0.043 0.183 0.213 0.326 0.621 1.485 3.926-0.438 8.556-4.201 10.643-1.411 0.778-2.948 1.123-4.457 1.078-2.515-0.075-4.9986-0.936-6.6154-2.998-0.4399-0.599-0.4777-0.832-0.0996-1.041l14.648-8.157c0.191-0.105 0.301-0.189 0.399-0.146zm-8.326 14.836c-0.566 0.006-1.137 0.064-1.707 0.176-0.943 0.161-0.773 0.65-0.612 1.103l5.733 16.131c0.16 0.449 0.473 0.821 1.207 0.453 2.548-1.376 4.261-3.8 4.801-6.516 0.324-1.629 0.226-3.363-0.368-5.037-1.395-3.908-5.096-6.356-9.054-6.31zm21.336 0.039c-1.661-0.05-3.355 0.333-4.907 1.195-4.141 2.312-5.903 7.279-4.269 11.629 0.315 0.903 0.769 0.656 1.189 0.422l14.959-8.324c0.416-0.232 0.732-0.603 0.248-1.266-1.779-2.285-4.453-3.573-7.22-3.656zm-20.991 0.424c3.592 0.019 7 2.501 8.256 6.05 0.534 1.52 0.621 3.093 0.326 4.575-0.49 2.467-1.751 4.776-4.052 6.029-0.663 0.335-0.899 0.333-1.043-0.074l-5.619-15.797c-0.146-0.412-0.264-0.489 0.587-0.637 0.515-0.102 1.032-0.149 1.545-0.146zm20.817 0.107c2.514 0.075 4.998 0.936 6.615 2.998 0.44 0.599 0.478 0.832 0.1 1.041l-14.649 8.156c-0.382 0.212-0.438 0.341-0.724-0.474-1.485-3.927 0.437-8.556 4.201-10.643 1.41-0.778 2.947-1.123 4.457-1.078zm-25.09 0.414c-0.1345 0.009-0.2937 0.055-0.4804 0.149-4.0882 2.198-6.034 7.094-4.4493 11.56 1.5899 4.454 6.1748 7.013 10.721 6.145 0.497-0.081 0.7-0.247 0.758-0.455 0.057-0.209-0.032-0.459-0.121-0.711l-5.707-16.051c-0.126-0.355-0.3175-0.663-0.7211-0.637zm-0.0273 0.588c0.1604 0.01 0.2561 0.111 0.3281 0.315l5.6193 15.796c0.072 0.206 0.137 0.329 0.078 0.418-0.059 0.09-0.24 0.145-0.666 0.219-4.118 0.815-8.3676-1.845-9.8028-5.902-0.5338-1.52-0.6205-3.095-0.3261-4.576 0.49-2.468 1.7511-4.777 4.0527-6.03 0.3315-0.167 0.5564-0.249 0.7168-0.24zm33.355 4.01c-0.215-0.022-0.448 0.108-0.682 0.238l-14.884 8.283c-0.439 0.244-0.776 0.591-0.284 1.266 2.845 3.668 7.995 4.777 12.137 2.475 4.129-2.305 5.896-7.25 4.287-11.59-0.162-0.477-0.359-0.65-0.574-0.672zm-0.187 0.59c0.097 0.043 0.183 0.213 0.326 0.621 1.485 3.926-0.436 8.557-4.199 10.644-1.411 0.778-2.95 1.124-4.459 1.078-2.515-0.074-4.999-0.935-6.616-2.998-0.44-0.598-0.477-0.833-0.099-1.043l14.648-8.156c0.191-0.105 0.301-0.19 0.399-0.146z" fill-rule="evenodd" transform="scale(.26458)" stroke-width=".99999" fill="#333"/>
</svg>
